dist/svg/static/honk-small.svg

<svg xmlns="http://www.w3.org/2000/svg" width="24" height="24" viewBox="0 0 24 24"><g fill="none" stroke="currentColor" stroke-miterlimit="10"><path d="M12 13.5h3.6s6.1-.6 6.1 6h1.8v-15h-1.8s0 6-6.1 6H7C5.967 10.5 2 10 .5 8v7.5s1.5-2 6.5-2h6"/><path stroke-linecap="round" d="M8.5 13.5c-2.2.3-3.8 1.1-3.9 2.5-.1 1.8 2.4 3.3 5.7 3.6s6.1-.8 6.2-2.6-2.1-3.1-5.1-3.5"/></g></svg>

<?xml version="1.0" encoding="UTF-8" standalone="no"?>
<svg width="24px" height="24px" viewBox="0 0 24 24" version="1.1" xmlns="http://www.w3.org/2000/svg" xmlns:xlink="http://www.w3.org/1999/xlink">
    <!-- Generator: sketchtool 46.2 (44496) - http://www.bohemiancoding.com/sketch -->
    <title>honk-small</title>
    <desc>Created with sketchtool.</desc>
    <defs></defs>
    <g id="icons-published" stroke="none" stroke-width="1" fill="none" fill-rule="evenodd">
        <g id="briefing" transform="translate(-2372.000000, -794.000000)"></g>
        <g id="honk-small" stroke="#000000">
            <path d="M12,13.5 L15.6,13.5 C15.6,13.5 21.7,12.9 21.7,19.5 L23.5,19.5 L23.5,4.5 L21.7,4.5 C21.7,4.5 21.7,10.5 15.6,10.5 L7,10.5 C6,10.5 2,10 0.5,8 L0.5,15.5 C0.5,15.5 2,13.5 7,13.5 L13,13.5" id="Shape"></path>
            <path d="M8.5,13.5 C6.3,13.8 4.7,14.6 4.6,16 C4.5,17.8 7,19.3 10.3,19.6 C13.6,19.9 16.4,18.8 16.5,17 C16.6,15.2 14.4,13.9 11.4,13.5" id="Shape" stroke-linecap="round"></path>
        </g>
    </g>
</svg>
